X: 1
T: Blind Mary (M\'aire Dhall)
C: Turlough O'Carolan
R: air
Z: 2020 John Chambers <jc:trillian.mit.edu>
S: https://www.facebook.com/groups/Fiddletuneoftheday/ 2020-10-05
S: https://www.facebook.com/groups/Fiddletuneoftheday/photos/
M: C
L: 1/8
K: D
(AB/c/) |\
"D"d3d dc3 | "G"{c}B3"D"A- A2(FG) | A3(B A2)(FD) | "A"E4- EEFG |
"D"A2d2 "D7"f2(f/g/f/e/) | "G"dB3 "D"A2(DE) | (FG)FD "A"E3D | "D"G2(FE) D2 :|
A2 |:\
"D"f2fg fed2 | "A"e4(e/f/e/c/) A2Bc | "D"(d3D) D2(EF) | "A"{EF}E4- EEFG |
"D"A2d2 f2(f/g/f/e/) | "F#"dB3 "G"{Bc}A2(DE) | "D"FG"A"FD "D"E3D |1 "D"G2(FE) G2(FE) :|2 "D"G2(FE) D2 |]
